src/icons/gcsBucket.svg

<?xml version="1.0" encoding="UTF-8"?>
<svg xmlns="http://www.w3.org/2000/svg" xmlns:xlink="http://www.w3.org/1999/xlink" width="32" height="32" viewBox="0 0 32 32" version="1.1">
<g id="surface1">
<path style=" stroke:none;fill-rule:nonzero;fill:rgb(68.235296%,79.607844%,98.039216%);fill-opacity:1;" d="M 2.667969 5.332031 L 29.332031 5.332031 L 29.332031 14.667969 L 2.667969 14.667969 Z M 2.667969 5.332031 "/>
<path style=" stroke:none;fill-rule:nonzero;fill:rgb(40.000001%,61.56863%,96.470588%);fill-opacity:1;" d="M 26.667969 5.332031 L 29.332031 5.332031 L 29.332031 14.667969 L 26.667969 14.667969 Z M 26.667969 5.332031 "/>
<path style=" stroke:none;fill-rule:nonzero;fill:rgb(25.882354%,52.156866%,95.686275%);fill-opacity:1;" d="M 29.332031 5.332031 L 26.667969 5.332031 L 26.667969 14.667969 Z M 29.332031 5.332031 "/>
<path style=" stroke:none;fill-rule:nonzero;fill:rgb(40.000001%,61.56863%,96.470588%);fill-opacity:1;" d="M 2.667969 5.332031 L 5.332031 5.332031 L 5.332031 14.667969 L 2.667969 14.667969 Z M 2.667969 5.332031 "/>
<path style=" stroke:none;fill-rule:nonzero;fill:rgb(100%,100%,100%);fill-opacity:1;" d="M 8 9.332031 L 16 9.332031 L 16 10.667969 L 8 10.667969 Z M 22 8 C 23.105469 8 24 8.894531 24 10 C 24 11.105469 23.105469 12 22 12 C 20.894531 12 20 11.105469 20 10 C 20 8.894531 20.894531 8 22 8 M 22 8 "/>
<path style=" stroke:none;fill-rule:nonzero;fill:rgb(68.235296%,79.607844%,98.039216%);fill-opacity:1;" d="M 2.667969 17.332031 L 29.332031 17.332031 L 29.332031 26.667969 L 2.667969 26.667969 Z M 2.667969 17.332031 "/>
<path style=" stroke:none;fill-rule:nonzero;fill:rgb(40.000001%,61.56863%,96.470588%);fill-opacity:1;" d="M 26.667969 17.332031 L 29.332031 17.332031 L 29.332031 26.667969 L 26.667969 26.667969 Z M 26.667969 17.332031 "/>
<path style=" stroke:none;fill-rule:nonzero;fill:rgb(25.882354%,52.156866%,95.686275%);fill-opacity:1;" d="M 29.332031 17.332031 L 26.667969 17.332031 L 26.667969 26.667969 Z M 29.332031 17.332031 "/>
<path style=" stroke:none;fill-rule:nonzero;fill:rgb(40.000001%,61.56863%,96.470588%);fill-opacity:1;" d="M 2.667969 17.332031 L 5.332031 17.332031 L 5.332031 26.667969 L 2.667969 26.667969 Z M 2.667969 17.332031 "/>
<path style=" stroke:none;fill-rule:nonzero;fill:rgb(100%,100%,100%);fill-opacity:1;" d="M 8 21.332031 L 16 21.332031 L 16 22.667969 L 8 22.667969 Z M 22 20 C 23.105469 20 24 20.894531 24 22 C 24 23.105469 23.105469 24 22 24 C 20.894531 24 20 23.105469 20 22 C 20 20.894531 20.894531 20 22 20 M 22 20 "/>
</g>
</svg>

<svg role="img" viewBox="0 0 32 32" xmlns="http://www.w3.org/2000/svg"><path d="M2.668 5.332h26.664v9.336H2.668Zm0 0" style="stroke:none;fill-rule:nonzero;fill:rgb(68.235296%,79.607844%,98.039216%);fill-opacity:1"/><path d="M26.668 5.332h2.664v9.336h-2.664Zm0 0" style="stroke:none;fill-rule:nonzero;fill:rgb(40.000001%,61.56863%,96.470588%);fill-opacity:1"/><path d="M29.332 5.332h-2.664v9.336Zm0 0" style="stroke:none;fill-rule:nonzero;fill:rgb(25.882354%,52.156866%,95.686275%);fill-opacity:1"/><path d="M2.668 5.332h2.664v9.336H2.668Zm0 0" style="stroke:none;fill-rule:nonzero;fill:rgb(40.000001%,61.56863%,96.470588%);fill-opacity:1"/><path d="M8 9.332h8v1.336H8ZM22 8a1.999 1.999 0 1 1 0 4 1.999 1.999 0 1 1 0-4m0 0" style="stroke:none;fill-rule:nonzero;fill:rgb(100%,100%,100%);fill-opacity:1"/><path d="M2.668 17.332h26.664v9.336H2.668Zm0 0" style="stroke:none;fill-rule:nonzero;fill:rgb(68.235296%,79.607844%,98.039216%);fill-opacity:1"/><path d="M26.668 17.332h2.664v9.336h-2.664Zm0 0" style="stroke:none;fill-rule:nonzero;fill:rgb(40.000001%,61.56863%,96.470588%);fill-opacity:1"/><path d="M29.332 17.332h-2.664v9.336Zm0 0" style="stroke:none;fill-rule:nonzero;fill:rgb(25.882354%,52.156866%,95.686275%);fill-opacity:1"/><path d="M2.668 17.332h2.664v9.336H2.668Zm0 0" style="stroke:none;fill-rule:nonzero;fill:rgb(40.000001%,61.56863%,96.470588%);fill-opacity:1"/><path d="M8 21.332h8v1.336H8ZM22 20a1.999 1.999 0 1 1 0 4 1.999 1.999 0 1 1 0-4m0 0" style="stroke:none;fill-rule:nonzero;fill:rgb(100%,100%,100%);fill-opacity:1"/></svg>
